src/asset/image/check.svg

<svg width="32" height="32" viewBox="0 0 32 32" fill="none" xmlns="http://www.w3.org/2000/svg">
<path d="M16 0C7.17733 0 0 7.17867 0 16C0 24.8213 7.17733 32 16 32C24.8213 32 32 24.8213 32 16C32 7.17867 24.8213 0 16 0Z" fill="#1C6937"/>
<path d="M12.8531 19.2557L21.4663 11.4702C21.9892 10.9964 22.8115 11.0213 23.3017 11.5287C23.7921 12.0364 23.764 12.8329 23.24 13.3077L13.7073 21.9251C13.4646 22.1431 13.1481 22.2613 12.8232 22.2613C12.4819 22.2613 12.1538 22.1325 11.9045 21.8935L8.72769 18.8166C8.22098 18.3258 8.22098 17.5291 8.72769 17.0383C9.2344 16.5476 10.057 16.5476 10.5637 17.0383L12.8531 19.2557Z" fill="white"/>
</svg>

<svg width="32" height="32" viewBox="0 0 32 32" fill="none" xmlns="http://www.w3.org/2000/svg"><path d="M16 0C7.177 0 0 7.179 0 16s7.177 16 16 16c8.821 0 16-7.179 16-16S24.821 0 16 0z" fill="#1C6937"/><path d="M12.853 19.256l8.613-7.786a1.329 1.329 0 011.836.059c.49.507.462 1.304-.062 1.779l-9.533 8.617c-.242.218-.559.336-.884.336-.341 0-.67-.128-.918-.367l-3.177-3.077a1.23 1.23 0 010-1.779c.506-.49 1.329-.49 1.836 0l2.29 2.218z" fill="#fff"/></svg>
